resources/svg/info-small-o.svg

<svg width="15" height="15" viewBox="0 0 15 15" fill="none" xmlns="http://www.w3.org/2000/svg">
<path d="M7 4.49999V4.99999H8V4.49999H7ZM8 4.48999V3.98999H7V4.48999H8ZM8 11L8 6.99999H7L7 11H8ZM8 4.49999V4.48999H7V4.49999H8ZM6 7.99999H7.5V6.99999H6V7.99999ZM6 11H9V9.99999H6V11Z" fill="black"/>
</svg>

<svg viewBox="0 0 15 15" fill="none" xmlns="http://www.w3.org/2000/svg" fill="currentColor"><path d="M7 4.5V5h1v-.5H7zm1-.01v-.5H7v.5h1zM8 11V7H7v4h1zm0-6.5v-.01H7v.01h1zM6 8h1.5V7H6v1zm0 3h3v-1H6v1z" fill="currentColor"/></svg>
